src/assets/outline/GridLock.svg

<svg width="24" height="24" viewBox="0 0 24 24"  xmlns="http://www.w3.org/2000/svg">
<path d="M10 22.75H9C3.57 22.75 1.25 20.43 1.25 15V9C1.25 3.57 3.57 1.25 9 1.25H15C20.43 1.25 22.75 3.57 22.75 9V11C22.75 11.41 22.41 11.75 22 11.75C21.59 11.75 21.25 11.41 21.25 11V9C21.25 4.39 19.61 2.75 15 2.75H9C4.39 2.75 2.75 4.39 2.75 9V15C2.75 19.61 4.39 21.25 9 21.25H10C10.41 21.25 10.75 21.59 10.75 22C10.75 22.41 10.41 22.75 10 22.75Z" />
<path d="M22.0003 9.25H2.03027C1.62027 9.25 1.28027 8.91 1.28027 8.5C1.28027 8.09 1.62027 7.75 2.03027 7.75H22.0003C22.4103 7.75 22.7503 8.09 22.7503 8.5C22.7503 8.91 22.4103 9.25 22.0003 9.25Z" />
<path d="M12.0003 16.25H2.03027C1.62027 16.25 1.28027 15.91 1.28027 15.5C1.28027 15.09 1.62027 14.75 2.03027 14.75H12.0003C12.4103 14.75 12.7503 15.09 12.7503 15.5C12.7503 15.91 12.4103 16.25 12.0003 16.25Z" />
<path d="M8.50977 22.7395C8.09977 22.7395 7.75977 22.3995 7.75977 21.9895V2.01953C7.75977 1.60953 8.09977 1.26953 8.50977 1.26953C8.91977 1.26953 9.25977 1.60953 9.25977 2.01953V21.9895C9.25977 22.3995 8.92977 22.7395 8.50977 22.7395Z" />
<path d="M15.5098 12.7395C15.0998 12.7395 14.7598 12.3995 14.7598 11.9895V2.01953C14.7598 1.60953 15.0998 1.26953 15.5098 1.26953C15.9198 1.26953 16.2598 1.60953 16.2598 2.01953V11.9895C16.2598 12.3995 15.9298 12.7395 15.5098 12.7395Z" />
<path d="M20.4001 17.95C19.9901 17.95 19.6501 17.61 19.6501 17.2V16.4C19.6501 15.28 19.4001 14.75 18.0001 14.75C16.6001 14.75 16.3501 15.28 16.3501 16.4V17.2C16.3501 17.61 16.0101 17.95 15.6001 17.95C15.1901 17.95 14.8501 17.61 14.8501 17.2V16.4C14.8501 14.31 15.9101 13.25 18.0001 13.25C20.0901 13.25 21.1501 14.31 21.1501 16.4V17.2C21.1501 17.61 20.8101 17.95 20.4001 17.95Z" />
<path d="M20 22.7502H16C14 22.7502 13.25 22.0002 13.25 20.0002V19.2002C13.25 17.2002 14 16.4502 16 16.4502H20C22 16.4502 22.75 17.2002 22.75 19.2002V20.0002C22.75 22.0002 22 22.7502 20 22.7502ZM16 17.9502C14.81 17.9502 14.75 18.0102 14.75 19.2002V20.0002C14.75 21.1802 14.82 21.2502 16 21.2502H20C21.18 21.2502 21.25 21.1802 21.25 20.0002V19.2002C21.25 18.0102 21.19 17.9502 20 17.9502H16Z" />
</svg>

<?xml version="1.0" encoding="UTF-8"?>
<svg width="24" height="24" viewBox="0 0 24 24" xmlns="http://www.w3.org/2000/svg">
 <path d="m10 22.75h-1c-5.43 0-7.75-2.32-7.75-7.75v-6c0-5.43 2.32-7.75 7.75-7.75h6c5.43 0 7.75 2.32 7.75 7.75v2c0 0.41-0.34 0.75-0.75 0.75s-0.75-0.34-0.75-0.75v-2c0-4.61-1.64-6.25-6.25-6.25h-6c-4.61 0-6.25 1.64-6.25 6.25v6c0 4.61 1.64 6.25 6.25 6.25h1c0.41 0 0.75 0.34 0.75 0.75s-0.34 0.75-0.75 0.75z"/>
 <path d="m22 9.25h-19.97c-0.41 0-0.75-0.34-0.75-0.75s0.34-0.75 0.75-0.75h19.97c0.41 0 0.75 0.34 0.75 0.75s-0.34 0.75-0.75 0.75z"/>
 <path d="m12 16.25h-9.97c-0.41 0-0.75-0.34-0.75-0.75s0.34-0.75 0.75-0.75h9.97c0.41 0 0.75 0.34 0.75 0.75s-0.34 0.75-0.75 0.75z"/>
 <path d="m8.5098 22.74c-0.41 0-0.75-0.34-0.75-0.75v-19.97c0-0.41 0.34-0.75 0.75-0.75s0.75 0.34 0.75 0.75v19.97c0 0.41-0.33 0.75-0.75 0.75z"/>
 <path d="m15.51 12.74c-0.41 0-0.75-0.34-0.75-0.75v-9.97c0-0.41 0.34-0.75 0.75-0.75s0.75 0.34 0.75 0.75v9.97c0 0.41-0.33 0.75-0.75 0.75z"/>
 <path d="m20.4 17.95c-0.41 0-0.75-0.34-0.75-0.75v-0.8c0-1.12-0.25-1.65-1.65-1.65s-1.65 0.53-1.65 1.65v0.8c0 0.41-0.34 0.75-0.75 0.75s-0.75-0.34-0.75-0.75v-0.8c0-2.09 1.06-3.15 3.15-3.15s3.15 1.06 3.15 3.15v0.8c0 0.41-0.34 0.75-0.75 0.75z"/>
 <path d="m20 22.75h-4c-2 0-2.75-0.75-2.75-2.75v-0.8c0-2 0.75-2.75 2.75-2.75h4c2 0 2.75 0.75 2.75 2.75v0.8c0 2-0.75 2.75-2.75 2.75zm-4-4.8c-1.19 0-1.25 0.06-1.25 1.25v0.8c0 1.18 0.07 1.25 1.25 1.25h4c1.18 0 1.25-0.07 1.25-1.25v-0.8c0-1.19-0.06-1.25-1.25-1.25h-4z"/>
</svg>
